X:1
T:One Special Night
T:One Special Night
T:Scott Werdebaugh
T:Scott Werdebaugh, 2005
T:© 2005 Scott Werdebaugh. Reproduce or publish freely for Christian worship or devotions. Courtesy of the Cyber Hymnal™
C:Scott Werdebaugh
Z:© 2005 Scott Werdebaugh. Reproduce or publish freely for Christian worship or devotions.
Z:Courtesy of the Cyber Hymnal™
%%score ( 1 2 ) ( 3 4 )
L:1/8
Q:1/4=110
M:2/4
K:E
V:1 treble 
V:2 treble 
V:3 bass 
V:4 bass 
V:1
"^Joyfully (in two)""^E" ([GB]2 [EB][EA] | [EG]4) |"^E" ([GB]2"^B7" [FA]"^E"[EG] |"^B" [DF]4) | %4
"^E" ([EG]2 [EG]"^A"[EA] |"^B" [DB]2 [FB]2 |"^A" [CA]3"^E" [EG] |"^B" [DF]4) | %8
"^E" ([EG]2 [EG]"^A"[CA] |"^E" [EB]2 [GB]2 |"^A" [Ac]3"^B7" [Ad] |"^E" [Ge]4) | %12
"^A" ([ce]2"^B" [Bd]"^A"[Ac] |"^B" [DB]2 [FB]2 |"^A" [Ac]2"^E" [EB]"^A"[EA] |"^E" [B,G]2 [EG]2 | %16
"^A" [EA]2 [CA][EA] |"^E" [EB]"^A"[CA]"^E" [EG]2 |"^B-B7" [DF]4 |"^E" [B,E]4) || %20
"^Unison on Melody, Slowly Building in Volume and Intensity""^Bass/Alto Only""^B" ([F,B,]2 [F,B,][F,B,] | %21
"^E" [B,E]4) |"^Tenor/Sopr. Only""^B" ([DF]2 [DF][DF] |"^E" [EB]4) | %24
"^All Voices = Unison""^A" ([Ec]2 [Ac][Ec] |"^B" [FB]2"^E" [EG]"^B"[FB] |"^A" [Ac]3"^B" [FB] | %27
"^B" [FB]4) |"^All Voices = Parts""^A" ([Ac]2"^E" [GB]"^B7"[FA] |"^E" [EB]4) | %30
"^A" ([CA]2"^E" [EG]"^B"[DF] |"^E" [EG]4) |"^C#m" ([Fc]2"^B" [FB]"^B7"[FA] |"^E" [EB]2"^E" [GB]2 | %34
"^B7""^rit." [FA]2"^E" [EG]2 |"^B-C#m" F4) |1,2"^E"[Q:1/4=100] [B,E]4 :|3 %37
[Q:1/4=88]"^E" !fermata![B,E]4 || x4 | %39
V:2
 x4 | x4 | x4 | x4 | x4 | x4 | x4 | x4 | x4 | x4 | x4 | x4 | x4 | x4 | x4 | x4 | x4 | x4 | x4 | %19
 x4 || x4 | x4 | x4 | x4 | x4 | x4 | x4 | x4 | x4 | x4 | x4 | x4 | x4 | x4 | x4 | D2 C2 |1,2 x4 :|3 %37
 x4 || x4 | %39
V:3
 ([E,G,]2 [A,C][C,A,] | [E,B,]4) | ([E,G,]2 [B,,D,][B,,E,] | [B,,F,]4) | ([B,,E,]2 [B,,E,][C,A,] | %5
 [B,,F,]2 [B,,D,]2 | [A,,E,]3 [B,,E,] | [B,,F,]4) | ([B,,E,]2 [B,,E,][A,,E,] | [E,G,]2 [E,B,]2 | %10
 [E,A,]3 [B,,F,] | [E,B,]4) | [A,,A,]2 [B,,F,][E,A,] | [B,,F,]2 [B,,B,]2 | [E,A,]2 [E,G,][C,A,] | %15
 [E,G,]2 [E,B,]2 | [C,A,]2 [A,,E,][C,A,] | G,A, [E,B,]2 | B,2 A,2 | [E,G,]4 || %20
 ([B,,D,]2 [B,,D,][B,,D,] | [E,G,]4) | ([B,,F,]2 [B,,D,][B,,F,] | [E,G,]4) | %24
 [A,,A,]2 [A,,E,][A,,A,] | [B,,B,]2 [E,B,][D,B,] | E,2 A,[D,B,] | [B,,D]4 | %28
 ([E,A,]2 [E,G,][B,,D,] | [E,G,]4) | ([E,A,]2 [E,B,][B,,B,] | [E,B,]4) | ([C,A,]2 [B,,D,][D,F,] | %33
 [E,G,]2 [B,,E,]2 | [B,,F,]2 [B,,E,]2 | [B,,B,]2 [C,A,]2 |1,2 [E,G,]4) :|3 !fermata![E,G,]4 || x4 | %39
V:4
 x4 | x4 | x4 | x4 | x4 | x4 | x4 | x4 | x4 | x4 | x4 | x4 | x4 | x4 | x4 | x4 | x4 | E,2 x2 | %18
 B,,4 | x4 || x4 | x4 | x4 | x4 | x4 | x4 | A,,3 x | x4 | x4 | x4 | x4 | x4 | x4 | x4 | x4 | %35
 x4 |1,2 x4 :|3 x4 || x4 | %39

